src/pos-icons/border-vertical.svg

<svg height="24" viewBox="0 0 24 24" width="24" xmlns="http://www.w3.org/2000/svg"><path d="m15 13h2v-2h-2m0 10h2v-2h-2m0-14h2v-2h-2m4 6h2v-2h-2m0-2h2v-2h-2m0 10h2v-2h-2m0 10h2v-2h-2m-8 2h2v-18h-2m8 14h2v-2h-2m-12-10h2v-2h-2m-4 14h2v-2h-2m0 6h2v-2h-2m0-6h2v-2h-2m4 2h2v-2h-2m0 10h2v-2h-2m-4-14h2v-2h-2m0 6h2v-2h-2z"/></svg>

<?xml version="1.0" encoding="UTF-8"?><!DOCTYPE svg PUBLIC "-//W3C//DTD SVG 1.1//EN" "http://www.w3.org/Graphics/SVG/1.1/DTD/svg11.dtd"><svg xmlns="http://www.w3.org/2000/svg" xmlns:xlink="http://www.w3.org/1999/xlink" version="1.1" id="mdi-border-vertical" width="24" height="24" viewBox="0 0 24 24"><path d="M15,13H17V11H15M15,21H17V19H15M15,5H17V3H15M19,9H21V7H19M19,5H21V3H19M19,13H21V11H19M19,21H21V19H19M11,21H13V3H11M19,17H21V15H19M7,5H9V3H7M3,17H5V15H3M3,21H5V19H3M3,13H5V11H3M7,13H9V11H7M7,21H9V19H7M3,5H5V3H3M3,9H5V7H3V9Z" /></svg>
